X:37
T:Nuvuja Polka
C:Gabrielle Létourneau
N:© Gabrielle Létourneau
Z:gabie.letourneau@hotmail.ca
R:polka
M:2/4
L:1/8
K:F#m
c3/d/ cB | AB c2 | Be- eA | c3/d/ cB | AB c2 | Bc AG | F2F2 ::
EA- Ac | B3/A/ Be | ca ge | fe cA | EA- Ac | B3/A/ Be | cB AE | F2F2 :|
